!!!!SEGMENT: pl-wtm--r-116-n--001_noskowski-zygmunt-causeries-op-32-nostalgie.krn
!!!id: 18xx:2135
!!!COM: Noskowski, Zygmunt
!!!OTL: Causeries op. 32 – Nostalgie
!!!PDT: 1850
!!!SMS-siglum: PL-Wtm
!!!SMS-shelfmark: R 116/N
!!!NIFC-rismID: 1001084161
!!!URL-scan: http://repozytorium.nifc.pl/skany/pl-wtm-nut--r116n
!!!ONB-nifc:
!!!SMS-variant:
!!!SMS-altvar:
!!!OMD: Cantabile non troppo lento.
**kern	**fing	**kern	**dynam
*part2	*	*part1	*part1
*staff2	*	*staff1	*
*I"Piano	*	*I"Piano	*
*clefF4	*	*clefG2	*
*k[f#]	*	*k[f#]	*
*M3/4	*	*M3/4	*
=1	=1	=1	=1
!	!	!LO:TX:a:t=P:problem:arpeggio przez dwie pięciolinie	!LO:DY:rj
2.G: 2.BB: 2.EE:/	.	4b: 4B:/	mf
.	.	(8d#X/L	.
.	.	8e/	.
.	.	8g/	.
.	.	8a/J)	.
=2	=2	=2	=2
*	*	*^	*
2E\	.	(4b/	2g 2dn\	.
.	.	8cc/L	.	.
.	.	8b/	.	.
4c 4E\	.	8a/	4f# 4e\	.
.	.	8cc/J)	.	.
=3	=3	=3	=3	=3
2B 2E\	.	(4b/	2g 2e\	.
.	.	4.ee/)	.	.
4r	.	.	4r	.
.	.	(8ee/	.	.
=4	=4	=4	=4	=4
!	!	!	!LO:TX:a:t=P:problem:arpeggio przez dwie pięciolinie w tt. 4-6	!
2B: 2D: 2GG:\	.	8b/L	2g: 2d:\	.
.	.	8cc/J	.	.
.	.	2dd/)	.	.
4B: 4D: 4GG:\	.	.	4g: 4d:\	.
=5	=5	=5	=5	=5
!	!	!	!	!LO:DY:rj
2A: 2D: 2GG:\	.	(4a/	2f#: 2c:\	p
.	.	4b/	.	.
4A: 4D: 4GG:\	.	4cc/)	4f#: 4c:\	.
*	*	*v	*v	*
!!LO:LB:g=original
=6	=6	=6	=6
2B: 2D: 2GG:\	.	2b: 2g: 2d:/	.
(8GG/L	.	4r	<[
8AA/J	.	.	.
=7	=7	=7	=7
*	*	*^	*
!	!	!	!	!LO:DY:rj
2BB/)	.	(4f#/	2d#X 2A\	mf
.	.	8g/L	.	.
.	.	8f#/	.	.
4G 4BB\	.	8e/	4B\	.
.	.	8b/J)	.	.
*	*	*v	*v	*
=8	=8	=8	=8
2F# 2BB\	.	4a 4d#X 4A/	.
.	.	(8g/L	.
.	.	8f#/J)	.
(4BB/	.	(>8eL 8c 8A/	.
.	.	8f#J 8d# 8B/	.
=9	=9	=9	=9
*	*	*^	*
4EE/	.	4g 4e/	8c\L	<
.	.	.	8B\J	.
4FF#/	.	4a 4f# 4c 4A/	2ryy	.
4GG/)	.	4b 4e 4B/)	.	[[
=10	=10	=10	=10	=10
!	!	!	!	!LO:DY:rj
2.AA/	.	(<8cc/L	2.e 2.c\	f
.	.	8f#/J)	.	.
.	.	2f#/	.	.
!!LO:LB:g=original
=11	=11	=11	=11	=11
!	!	!	!	!LO:DY:rj
2.BB/	.	(4f#/	2.d#X 2.A\	p
!	!	!LO:TX:b:i:t=sosten.	!	!
.	.	4g/	.	.
.	.	4a/)	.	.
*	*	*v	*v	*
=12	=12	=12	=12
*ped	*	*	*
(2EE/	.	[2.e [2.G/	.
4BB/)	.	.	.
=13	=13	=13	=13
(4.EE/	.	4e] 4G/]	.
.	.	4r	.
*Xped	*	*	*
8C/L	.	.	.
8AA#X/	.	4r	.
8BB/J)	.	.	.
=14	=14	=14	=14
*	*	*^	*^
*ped	*	*	*	*	*
!LO:TX:t=P:problem:mixed beam	!	!	!	!	!LO:DY:rj
16EE/LL	.	(4b/	2ryy	mf	p
16BB/	.	.	.	.	.
16G/	.	.	.	.	.
16B>\JJ	.	.	.	.	.
!LO:TX:t=P:problem:mixed beam	!	!	!	!	!
16d#X>\LL	.	8d#X/L	.	.	.
*Xped	*	*	*	*	*
16B>\	.	.	.	.	.
16G/	.	8e/	.	.	.
16D/JJ	.	.	.	.	.
4EE/	.	8g/	16e\LL	.	.
.	.	.	16B\	.	.
.	.	8a/J	16f#\	.	.
.	.	.	16B\JJ	.	.
*	*	*	*	*v	*v
=15	=15	=15	=15	=15
*ped	*	*	*	*
!	!	!	!LO:TX:t=P:problem:mixed beam	!
2.E\	.	4b/	16g\LL	.
.	.	.	16dn\	.
.	.	.	16B</	.
.	.	.	16d\JJ	.
.	.	8cc/L	16g\LL	.
.	.	.	16d\	.
.	.	8b/	16g\	.
*Xped	*	*	*	*
.	.	.	16d\JJ	.
!	!	!	!LO:TX:t=P:problem:mixed beam	!
.	.	8a/	16f#\LL	.
.	.	.	16e\	.
.	.	8cc/J)	16A</	.
.	.	.	16e\JJ	.
*	*	*v	*v	*
!!LO:LB:g=original
=16	=16	=16	=16
*ped	*	*	*
16E\LL	.	(>4b 4g/	.
16B\	.	.	.
16e\	.	.	.
16B\JJ	.	.	.
!LO:TX:t=P:problem:mixed beam	!	!	!
16g>\LL	.	4.ee 4.g/	.
16e>\	.	.	.
16B/	.	.	.
16E/JJ	.	.	.
!LO:TX:t=P:problem:mixed beam	!	!	!
16B/LL	.	.	.
16E/	.	.	.
16B/	.	8ee 8g/	.
*Xped	*	*	*
16e>\JJ	.	.	.
=17	=17	=17	=17
*ped	*	*	*
!LO:TX:t=P:problem:mixed beam	!	!	!
16GG/LL	.	8bL 8g/	.
16D/	.	.	.
16B/	.	8cc/J	.
16d>\JJ	.	.	.
!LO:TX:t=P:problem:mixed beam	!	!	!
16g>\LL	.	2dd/)	.
16d>\	.	.	.
16B/	.	.	.
16D/JJ	.	.	.
!LO:TX:t=P:problem:mixed beam	!	!	!
16GG/LL	.	.	.
16D/	.	.	.
16B/	.	.	.
*Xped	*	*	*
16d>\JJ	.	.	.
=18	=18	=18	=18
*ped	*	*	*
!LO:TX:t=P:problem:mixed beam	!	!	!
16GG/LL	.	(>4a 4f#/	.
16D/	.	.	.
16A/	.	.	.
16c>\JJ	.	.	.
!LO:TX:t=P:problem:mixed beam	!	!	!
16f#>\LL	.	4b 4f#/	.
16c>\	.	.	.
16A/	.	.	.
16D/JJ	.	.	.
!LO:TX:t=P:problem:mixed beam	!	!	!
16GG/LL	.	4cc 4f#/	.
16D/	.	.	.
16A/	.	.	.
*Xped	*	*	*
16c>\JJ	.	.	.
=19	=19	=19	=19
(>16GG/LL	.	2b 2g 2d/)	.
16D/	.	.	.
16C#X/	.	.	.
16D/JJ	.	.	.
16E\LL	.	.	.
16D\	.	.	.
16E\	.	.	.
16F#\JJ	.	.	.
16G\LL	.	4r	.
16F#\	.	.	.
16G\	.	.	.
16B\JJ)	.	.	.
!!LO:LB:g=original
=20	=20	=20	=20
*	*	*^	*
*ped	*	*	*	*
!	!	!	!LO:TX:t=P:problem:mixed beam	!
4BB/	.	(4f#/	16f#\LL	.
.	.	.	16d#X\	.
.	.	.	16B\	.
.	.	.	16A</JJ	.
!LO:TX:t=P:problem:mixed beam	!	!	!	!
16BB/LL	.	8g/L	2ryy	.
16A/	.	.	.	.
*Xped	*	*	*	*
16B>\	.	8f#/	.	.
16d>\JJ	.	.	.	.
*ped	*	*	*	*
!LO:TX:t=P:problem:mixed beam	!	!	!	!
16BB/LL	.	8e/	.	.
16G/	.	.	.	.
*Xped	*	*	*	*
16B>\	.	8b/J	.	.
16e>\JJ	.	.	.	.
=21	=21	=21	=21	=21
*ped	*	*	*	*
!LO:TX:t=P:problem:mixed beam	!	!	!	!
16BB/LL	.	4a/	2ryy	.
16F#/	.	.	.	.
16A>\	.	.	.	.
16d#X>\JJ	.	.	.	.
!LO:TX:t=P:problem:mixed beam	!	!	!	!
16g>\LL	.	8g/L	.	.
16d#X>\	.	.	.	.
*Xped	*	*	*	*
16A/	.	8f#/	.	.
16F#/JJ	.	.	.	.
4BB/	.	8e/	16c\LL	.
.	.	.	16A\	.
.	.	8f#/J)	16d#y\	.
.	.	.	16B\JJ	.
=22	=22	=22	=22	=22
*ped	*	*	*	*
4EE/	.	(4g/	16e\LL	.
.	.	.	16c\	.
*Xped	*	*	*	*
.	.	.	16B\	.
!	!	!	!	!LO:HP:a
.	.	.	16e\JJ	<
*ped	*	*	*	*
!LO:TX:t=P:problem:mixed beam	!	!	!	!LO:DY:a
16FF#/LL	.	4a/	2ryy	.
16E/	.	.	.	.
*Xped	*	*	*	*
16A>\	.	.	.	.
16c>\JJ	.	.	.	.
*ped	*	*	*	*
!LO:TX:t=P:problem:mixed beam	!	!	!	!
16GG/LL	.	4b/	.	.
16E/	.	.	.	.
16B>\	.	.	.	.
*Xped	*	*	*	*
16e>\JJ	.	.	.	[
*	*	*v	*v	*
=23	=23	=23	=23
*ped	*	*	*
!LO:TX:t=P:problem:mixed beam	!	!	!
16AA/LL	.	8cc/L	.
16E/	.	.	.
16A/	.	8f#/J	.
16c>\JJ	.	.	.
!LO:TX:t=P:problem:mixed beam	!	!	!
16A/LL	.	2f#/)	.
16c>\	.	.	.
16A/	.	.	.
16E/JJ	.	.	.
!LO:TX:t=P:problem:mixed beam	!	!	!
16AA/LL	.	.	.
16E/	.	.	.
16A/	.	.	.
*Xped	*	*	*
16c>\JJ	.	.	.
!!LO:PB:g=original
=24	=24	=24	=24
*ped	*	*	*
!LO:TX:t=P:problem:mixed beam	!	!	!LO:DY:rj
16BB/LL	.	(>4f#/	p
16A/	.	.	.
16B>\	.	.	.
16d#X>\JJ	.	.	.
!LO:TX:t=P:problem:mixed beam	!	!	!
16g>\LL	.	4g/	.
16d#>\	.	.	.
16B>\	.	.	.
16A/JJ	.	.	.
!LO:TX:t=P:problem:mixed beam	!	!	!
16BB/LL	.	4a/	.
16A/	.	.	.
*Xped	*	*	*
16B>\	.	.	.
16d#>\JJ	.	.	.
=25	=25	=25	=25
*ped	*	*	*
!LO:TX:t=P:problem:mixed beam	!	!	!
(<16EE/LL	.	[>2.e/	.
16BB/	.	.	.
16G/	.	.	.
16B>\JJ	.	.	.
!LO:TX:t=P:problem:mixed beam	!	!	!
16c>\LL	.	.	.
16B>\	.	.	.
16G/	.	.	.
16BB/JJ	.	.	.
16EE/LL	.	.	.
16BB/	.	.	.
16EE/	.	.	.
16BB/JJ)	.	.	.
=26	=26	=26	=26
*Xped	*	*	*
!LO:TX:a:t=molto crescendo	!	!	!
(<16EE/LL	.	4e/])	.
16BB/	.	.	.
16C/	.	.	.
16BB/JJ	.	.	.
16AA#X/LL	.	4r	.
16BB/	.	.	.
16C/	.	.	.
16BB/JJ	.	.	.
16AA#/LL	.	4r	.
16BB/	.	.	.
16C/	.	.	.
16BB/JJ	.	.	.
=27	=27	=27	=27
4E\)	.	16r	.
.	.	(16G/LL	.
.	.	16B/	<
.	.	16e/JJ	.
4r	.	16g/LL	.
.	.	16f#/	.
.	.	16g/	.
.	.	16b/JJ	.
4r	.	16ee\LL	.
.	.	16b\	[
.	.	16ee\	.
.	.	16gg\JJ)	.
!!LO:LB:g=original
=28||	=28||	=28||	=28||
!!!OMD: Poco più animato
*ped	*	*	*
!	!	!LO:TX:b:i:t=appasionato	!
32EELLL 32EEE^^\	.	4bb 4gg 4ee 4b^\	ff
(32BB\	.	.	.
32E\	.	.	.
32G\JJJ	.	.	.
32B\LLL	.	.	.
32G\	.	.	.
32E\	.	.	.
32BB\JJJ	.	.	.
32B\LLL	.	(8dd#XL 8d#X/	.
32G\	.	.	.
32E\	.	.	.
32BB\JJJ	.	.	.
32B\LLL	.	8eeJ 8e/	.
32G\	.	.	.
32E\	.	.	.
32BB\JJJ)	.	.	.
8B^^\	.	8ggL 8g\)	.
*Xped	*	*	*
8r	.	8aaJ 8a\	.
=29	=29	=29	=29
32EELLL 32EEE^^\	.	4bb 4gg#X 4ddn 4b^\	.
*ped	*	*	*
(32E\	.	.	.
32G#X\	.	.	.
32B\JJJ	.	.	.
32e\LLL	.	.	.
32B\	.	.	.
32G#\	.	.	.
32E\JJJ	.	.	.
32e\LLL	.	(8cccL 8cc\	.
32B\	.	.	.
32G#\	.	.	.
32E\JJJ	.	.	.
32e\LLL	.	8bbJ 8b\	.
32B\	.	.	.
32G#\	.	.	.
*Xped	*	*	*
32E\JJJ)	.	.	.
8e 8c 8A^^\	.	8aaL 8ff# 8ee 8a\)	.
8r	.	8cccJ 8cc\	.
=30	=30	=30	=30
*ped	*	*	*
32EELLL 32EEE^^\	.	4bb 4ggn 4ee 4b\	.
(32E\	.	.	.
32Gn\	.	.	.
32B\JJJ	.	.	.
32e\LLL	.	.	.
32B\	.	.	.
32G\	.	.	.
32E\JJJ	.	.	.
32e\LLL	.	4.eee 4.ee^^\	.
32B\	.	.	.
32G\	.	.	.
32E\JJJ	.	.	.
32e\LLL	.	.	.
32B\	.	.	.
32G\	.	.	.
32E\JJJ)	.	.	.
8e^^\	.	.	.
*Xped	*	*	*
8r	.	8eee 8ee\	.
!!LO:LB:g=original
=31	=31	=31	=31
*ped	*	*	*
32GGLLL 32GGG^^\	.	(8bbL 8gg 8dd 8b\	.
(32D\	.	.	.
32G\	.	.	.
32B\JJJ	.	.	.
32d\LLL	.	8cccJ 8cc\	.
32B\	.	.	.
32G\	.	.	.
32D\JJJ	.	.	.
32d\LLL	.	2ddd 2bb 2gg 2dd^\)	.
32B\	.	.	.
32G\	.	.	.
32D\JJJ	.	.	.
32e\LLL	.	.	.
32B\	.	.	.
32G\	.	.	.
32E\JJJ	.	.	.
32d\LLL	.	.	.
32B\	.	.	.
32G\	.	.	.
32D\JJJ)	.	.	.
*Xped	*	*	*
8d^\	.	.	.
=32	=32	=32	=32
*ped	*	*	*
32GGLLL 32GGG^^\	.	4aa 4ff# 4cc 4a'~\	.
(32F#\	.	.	.
32c\	.	.	.
32d\JJJ	.	.	.
32f#\LLL	.	.	.
32d\	.	.	.
32c\	.	.	.
32F#\JJJ	.	.	.
32f#\LLL	.	4bb 4b'~\	.
32d\	.	.	.
32c\	.	.	.
32F#\JJJ	.	.	.
32f#\LLL	.	.	.
32d\	.	.	.
32c\	.	.	.
*Xped	*	*	*
32F#\JJJ)	.	.	.
8f#^^\	.	4ccc 4cc'~\	.
8r	.	.	.
=33	=33	=33	=33
*ped	*	*	*
32GGLLL 32GGG^^\	.	2.bb 2.gg 2.dd 2.b^\	.
(32D\	.	.	.
32G\	.	.	.
32B\JJJ	.	.	.
32d\LLL	.	.	.
32B\	.	.	.
32G\	.	.	.
32D\JJJ	.	.	.
32d\LLL	.	.	.
32B\	.	.	.
32G\	.	.	.
32D\JJJ	.	.	.
32e\LLL	.	.	.
32d\	.	.	.
32B\	.	.	.
32G\JJJ	.	.	.
32d\LLL	.	.	.
32B\	.	.	.
32G\	.	.	.
32D\JJJ	.	.	.
32B\LLL	.	.	.
32G\	.	.	.
32D\	.	.	.
*Xped	*	*	*
32BB\JJJ)	.	.	.
!!LO:LB:g=original
=34	=34	=34	=34
*ped	*	*	*
32BBLLL 32BBB\	.	(4ff# 4dd#X 4a 4f#\	.
(32F#\	.	.	.
32A\	.	.	.
32B\JJJ	.	.	.
32d#X\LLL	.	.	.
32B\	.	.	.
32A\	.	.	.
32F#\JJJ	.	.	.
32d#\LLL	.	8ggL 8g\	.
32B\	.	.	.
32A\	.	.	.
32F#\JJJ	.	.	.
32d#\LLL	.	8ff#J 8f#\	.
32B\	.	.	.
32A\	.	.	.
32F#\JJJ	.	.	.
32e\LLL	.	8ee\L)	.
32B\	.	.	.
32G\	.	.	.
*Xped	*	*	*
32E\JJJ)	.	.	.
8e^^\	.	8bbJ 8b\	.
=35	=35	=35	=35
*ped	*	*	*
32BBLLL 32BBB\	.	(4aa 4dd#X 4a\	.
(32F#\	.	.	.
32A\	.	.	.
32B\JJJ	.	.	.
32d#X\LLL	.	.	.
32B\	.	.	.
32A\	.	.	.
32F#\JJJ	.	.	.
*Xped	*	*	*
8d#X^^\)	.	8ggL 8g\	.
8r	.	8ff#J 8f#\	.
4BB 4BBB^/	.	8eeL 8cc 8e\)	.
!	!	!LO:TX:b:i:t=con forʒa	!
.	.	8ff#J 8dd#X 8f#\	.
=36	=36	=36	=36
*ped	*	*	*
!LO:TX:t=P:problem:mixed beam	!	!LO:TX:a:i:t=sostenuto.	!
(>32EELLL 32EEE^</	.	4gg 4ee 4b 4g'~\	.
32E\	.	.	.
32G\	.	.	.
*Xped	*	*	*
32B\JJJ	.	.	.
8e\)	.	.	.
*ped	*	*	*
!LO:TX:t=P:problem:mixed beam	!	!	!
(32FF#LLL 32FFF#^</	.	4aa 4dd#X 4a'~\	.
32F#\	.	.	.
32A\	.	.	.
*Xped	*	*	*
32B\JJJ	.	.	.
8d#X\)	.	.	.
*ped	*	*	*
!LO:TX:t=P:problem:mixed beam	!	!	!
(>32GGLLL 32GGG^</	.	4bb 4ee 4b'~\	.
32G\	.	.	.
32B\	.	.	.
32e\JJJ	.	.	.
8g\)	.	.	.
*Xped	*	*	*
!!LO:LB:g=original
=37	=37	=37	=37
32AALLL 32AAA^^\	.	(8cccL 8ff# 8ee 8cc\	.
(32E\	.	.	.
*ped	*	*	*
32F#\	.	.	.
32c\JJJ	.	.	.
32e\LLL	.	8ff#J 8f#\)	.
32c\	.	.	.
32F#\	.	.	.
32E\JJJ	.	.	.
32e\LLL	.	[2ff# [2f#\	.
32c\	.	.	.
32F#\	.	.	.
32E\JJJ	.	.	.
32e\LLL	.	.	.
32c\	.	.	.
32F#\	.	.	.
32E\JJ	.	.	.
32e\LL	.	.	.
32c\	.	.	.
32F#\	.	.	.
32E\JJJ	.	.	.
32e\LLL	.	.	.
32c\	.	.	.
32F#\	.	.	.
32E\JJJ	.	.	.
=38	=38	=38	=38
*Xped	*	*	*
8e\)	.	8ff#]L 8f#\]	.
8r	.	(8ff# 8f#\	.
4r	.	8gg 8g\	<
.	.	8aa 8a\	.
4r	.	8bb 8b\	[
.	.	8cccJ 8cc\)	.
=39	=39	=39	=39
*ped	*	*	*
32AA#XLLL 32AAA#X^^\	.	(8ccc#XL 8ff# 8ee 8cc#X\	.
(32E\	.	.	.
32F#\	.	.	.
32c#X\JJJ	.	.	.
32e\LLL	.	8ff#J 8f#\)	.
32c#\	.	.	.
32F#\	.	.	.
32E\JJJ	.	.	.
32e\LLL	.	[2ff# [2f#\	.
32c#\	.	.	.
32F#\	.	.	.
32E\JJJ	.	.	.
32e\LLL	.	.	.
32c#\	.	.	.
32F#\	.	.	.
32E\JJJ	.	.	.
32e\LLL	.	.	.
32c#\	.	.	.
32F#\	.	.	.
32E\JJJ	.	.	.
32e\LLL	.	.	.
32c#\	.	.	.
32F#\	.	.	.
32E\JJJ	.	.	.
*Xped	*	*	*
!!LO:PB:g=original
=40	=40	=40	=40
8e\)	.	8ff#]L 8f#\]	.
!	!	!	!LO:HP:t=diminuendo
8r	.	(8ee#XJ 8e#X\	>
4r	.	8ff#L 8f#\	.
.	.	8ccc#X 8cc#X\	.
4r	.	8aa#X 8a#X\	.
.	.	8ee#J 8e#\)	.
=41||	=41||	=41||	=41||
!!!OMD: Tranquillo e con sentimento.
*k[f#c#g#d#]	*	*k[f#c#g#d#]	*
*M4/4	*	*M4/4	*
*met(c)	*	*met(c)	*
*Xtuplet	*	*	*
*ped	*	*	*
!	!	!LO:TX:b:i:t=dolcissimo	!LO:DY:rj
24BBLL 24BBB\	.	(8ff#L 8f#\	p
(24A\	.	.	.
24B\JJ	.	.	.
24d#\LL	.	8gg# 8g#\	.
24B\	.	.	.
24A\JJ	.	.	.
24F#\LL	.	8aa 8a\	.
24A\	.	.	.
24B\JJ	.	.	.
24d#\LL	.	8aa#XJ 8a#X\	.
24B\	.	.	.
24A\JJ	.	.	.
24D#\LL	.	8bbL 8b\	.
24A\	.	.	.
24B\JJ	.	.	.
24f#\LL	.	8bb#X 8b#X\	.
24Bn\	.	.	.
24A\JJ	.	.	.
24D#\LL	.	8ccc# 8cc#\)	.
24A\	.	.	.
24B\JJ	.	.	.
*Xped	*	*	*
24f#\LL	.	8ddd#J 8dd#\	.
24B\	.	.	.
24A\JJ)	.	.	.
=42	=42	=42	=42
*ped	*	*	*
24BBLL 24BBB\	.	(4fff# 4ff#\	.
(24G#\	.	.	.
24B\JJ	.	.	.
24e\LL	.	.	.
24B\	.	.	.
24G#\JJ	.	.	.
24BB\LL	.	[4eee [4ee\	.
24G#\	.	.	.
24B/JJ	.	.	.
24e\LL	.	.	.
24B\	.	.	.
24G#\JJ	.	.	.
24BB\LL	.	8eee]L 8ee\]	.
24G#\	.	.	.
24B\JJ	.	.	.
24e\LL	.	8ddd# 8dd#\	.
24B\	.	.	.
24G#\JJ	.	.	.
24BB\LL	.	8ccc# 8cc#\	.
24G#\	.	.	.
24B\JJ	.	.	.
*Xped	*	*	*
24e\LL	.	8bbJ 8b\)	.
24B\	.	.	.
24G#\JJ)	.	.	.
!!LO:LB:g=original
=43	=43	=43	=43
*ped	*	*	*
24BBLL 24BBB\	.	(4ggg# 4gg#\	.
(24A#X\	.	.	.
24c#\JJ	.	.	.
24e\LL	.	.	.
24c#\	.	.	.
24A#\JJ	.	.	.
24F#\LL	.	[4aa#X [4a#X\)	.
24A#\	.	.	.
24c#\JJ	.	.	.
24e\LL	.	.	.
24c#\	.	.	.
24A#\JJ	.	.	.
8F#\)	.	16aa#]LL 16a#\]	.
.	.	(16bb 16b\	<
8r	.	16ccc# 16cc#\	.
.	.	16ddd#JJ 16dd#\	.
*Xped	*	*	*
4r	.	16eeeLL 16ee\	.
.	.	16ddd# 16dd#\	.
.	.	16eee 16ee\	.
.	.	16fff#JJ 16ff#\)	[
=44	=44	=44	=44
*ped	*	*	*
(24BBLL 24BBB\	.	(4ggg# 4gg#\	mf
24D#\	.	.	.
24F#\JJ	.	.	.
24B\LL	.	.	.
24F#\	.	.	.
24D#\JJ	.	.	.
24BB\LL	.	[4fff# [4ff#\	.
24D#\	.	.	.
24F#\JJ	.	.	.
24B\LL	.	.	.
24F#\	.	.	.
24D#\JJ	.	.	.
24AA\LL	.	8fff#]L 8ff#\])	.
24D#\	.	.	.
24F#\JJ	.	.	.
24B\LL	.	(8fff# 8ff#\	>
24F#\	.	.	.
24D#\JJ	.	.	.
24AA\LL	.	8ggg# 8gg#\	.
24D#\	.	.	.
24F#\JJ)	.	.	.
*Xped	*	*	*
8B\	.	8aaaJ 8aa\)	]
!!LO:LB:g=original
=45	=45	=45	=45
*ped	*	*8va	*
24GG#LL 24GGG#/	.	4bbb 4eee 4bb\	p
(24BB/	.	.	.
24E/JJ	.	.	.
24G#\LL	.	.	.
24B\	.	.	.
24e\JJ	.	.	.
8g#\)	.	8bbbL 8bb\	.
8r	.	8bbbJ 8bb\	.
(24GG#/LL	.	(8bbbL 8bb\	.
24BB/	.	.	.
24E/JJ	.	.	.
24G#\LL	.	8cccc# 8ccc#\	.
24B\	.	.	.
24e\JJ	.	.	.
8g#\)	.	8bbb 8bb\	.
*Xped	*	*	*
8r	.	8aaa#XJ 8aa#X\)	.
=46	=46	=46	=46
*ped	*below	*	*
24FF#LL 24FFF#/	.	4aaan 4eee 4aan\	.
(24C#/	5	.	.
24E/JJ	.	.	.
24F#\LL	.	.	.
24A\	.	.	.
24c#\JJ	.	.	.
*Xped	*	*	*
8e\)	.	8aaaL 8aa\	.
8r	.	8aaaJ 8aa\	.
*ped	*	*	*
24BBLL 24BBB/	.	(8aaaL 8ddd# 8aa\	.
(24D#/	5	.	.
24F#/JJ	.	.	.
24A\LL	.	8bbb 8bb\	.
24B\	.	.	.
24d#\JJ	.	.	.
*Xped	*	*	*
8f#\)	.	8aaa 8aa\	.
8r	.	8fff#J 8ff#\)	.
=47	=47	=47	=47
*ped	*	*	*
24BBLL 24BBB\	.	(8gggnL 8dddn 8ggn\	.
(24Fn\	.	.	.
24Gn\JJ	.	.	.
24dn\LL	.	8aaa 8aa\	.
24G\	.	.	.
24F\JJ	.	.	.
*Xped	*	*	*
24BB\LL	.	8ggg 8gg\	.
24F\	.	.	.
24G\JJ	.	.	.
8d\)	.	8fffnJ 8ffn\	.
*ped	*	*X8va	*
24CnLL 24CCn\	.	8eeeL 8ee\	.
(24G\	.	.	.
24cn\JJ	.	.	.
24e\LL	.	8dddn 8ddn\	.
24c\	.	.	.
24G\JJ	.	.	.
24E\LL	.	8cccn 8ccn\	.
24G\	.	.	.
*Xped	*	*	*
24c\JJ	.	.	.
8e\)	.	8bbJ 8b\)	.
!!LO:LB:g=original
=48	=48	=48	=48
*ped	*	*	*
24CnLL 24CCn\	.	(8aaL 8a\	.
(24F#X\	.	.	.
24A\JJ	.	.	.
24e\LL	.	8gggnJ 8ggn\	.
24A\	.	.	.
24F#\JJ	.	.	.
24C\LL	.	[4fff#X [4ff#X\	.
24F#\	.	.	.
24A\JJ	.	.	.
*Xped	*	*	*
24e\LL	.	.	.
24A\	.	.	.
24F#\JJ)	.	.	.
*ped	*	*	*
(24BB\LL	.	8fff#]L 8ff#\]	<
24F#\	.	.	.
24A\JJ	.	.	.
8d#X\)	.	8ddd#X 8dd#X\	.
(24AA\LL	.	8ccc#X 8cc#X\)	.
24D#\	.	.	.
24F#\JJ	.	.	.
*Xped	*	*	*
8B\)	.	8bbJ 8b\	.
=49	=49	=49	=49
*ped	*	*	*
24GG#LL 24GGG#/	.	(8aa#XL 8a#X\	.
(24BB/	5	.	.
24E/JJ	.	.	.
24G#\LL	.	8bb 8b\	.
24E\	.	.	.
24BB\JJ	.	.	.
24B\LL	.	8ccc# 8cc#\	.
24G#\	.	.	.
24E\JJ	.	.	.
24e\LL	.	8ddd#J 8dd#\	.
24B\	.	.	<
24G#\JJ	.	.	.
8g#\)	.	8eeeL 8ee\	.
8r	.	8fff# 8ff#\	.
*Xped	*	*	*
4r	.	8fff##X 8ff##X\	.
.	.	8ggg#J 8gg#\)	[
=50	=50	=50	=50
*ped	*	*	*
24FF#LL 24FFF#/	.	(4bbb 4bb\	f
(24C#/	.	.	.
24E/JJ	.	.	.
24F#\LL	.	.	.
24E\	.	.	.
24C#\JJ	.	.	.
24A\LL	.	[4aaa [4aa\	.
24F#\	.	.	.
24E\JJ	.	.	.
24c#\LL	.	.	.
24A\	.	.	.
24F#\JJ	.	.	.
8e\)	.	8aaa]L 8aa\]	.
8r	.	8ggg# 8gg#\	.
*Xped	*	*	*
4r	.	8fff# 8ff#\	.
.	.	8eeeJ 8ee\)	.
!!LO:LB:g=original
=51	=51	=51	=51
*ped	*	*	*
24BBLL 24BBB\	.	(4ggg# 4gg#\	.
(24F#\	.	.	.
24A\JJ	.	.	.
24B\LL	.	.	.
24A\	.	.	.
24F#\JJ	.	.	.
24d#\LL	.	[4aa [4a\	.
24B\	.	.	.
24A\JJ	.	.	.
24B\LL	.	.	.
24A\	.	.	.
24F#\JJ)	.	.	.
8d#\	.	16aa]LL 16a\])	.
.	.	(16bb 16b\	.
8r	.	16ccc# 16cc#\	.
.	.	16eeeJJ 16ee\	.
*Xped	*	*	*
4r	.	16ddd#LL 16dd#\	.
.	.	16ccc# 16cc#\	.
.	.	16ddd# 16dd#\	.
.	.	16fff#JJ 16ff#\	.
=52	=52	=52	=52
*ped	*	*	*
(24EELL 24EEE/	.	2eee 2ee\)	.
24BB/	.	.	.
24E/JJ	.	.	.
24G#\LL	.	.	.
24E\	.	.	.
24BB\JJ	.	.	.
24B\LL	.	.	.
24G#\	.	.	.
24E\JJ	.	.	.
!	!	!	!LO:HP:b=2
24e\LL	.	.	>
24B\	.	.	.
24G#\JJ	.	.	.
24d#\LL	.	4r	.
24B\	.	.	.
24G#\JJ	.	.	.
24c#\LL	.	.	.
24G#\	.	.	.
24E\JJ	.	.	.
24B\LL	.	8r	.
24G#\	.	.	.
24E\JJ	.	.	.
*Xped	*	*	*
24G#\LL	.	8bb 8b\	]
24E\)	.	.	p
24C#\JJ	.	.	.
=53||	=53||	=53||	=53||
!!!OMD: Tempo I°
*M3/4	*	*M3/4	*
*ped	*	*	*
24EELL 24EEE\	.	4bb: 4ff#: 4dd#: 4b:\	.
(24F#\	.	.	.
24A\JJ	.	.	.
24d#\LL	.	.	.
24A\	.	.	.
24F#\JJ	.	.	.
8BB/)	.	(8dd#L 8d#/	.
*Xped	*	*	*
8r	.	8ee 8e/	.
4r	.	8ff# 8f#/	.
.	.	8aaJ 8a/)	.
!!LO:PB:g=original
=54	=54	=54	=54
*ped	*	*	*
24EELL 24EEE\	.	(4ccc#: 4ff#: 4dd#: 4cc#:\	.
(24F#\	.	.	.
24A\JJ	.	.	.
24d#\LL	.	.	.
24A\	.	.	.
24F#\JJ	.	.	.
24E\LL	.	8ddd#L 8dd#\	.
24F#\	.	.	.
24A\JJ	.	.	.
*Xped	*	*	*
24d#\LL	.	8ccc#J 8cc#\	.
24A\	.	.	.
24F#\JJ	.	.	.
*ped	*	*	*
24E\LL	.	8bbL 8b\)	.
24G#\	.	.	.
24B\JJ)	.	.	.
*Xped	*	*	*
8e\	.	8eeeJ 8ee\	.
=55	=55	=55	=55
*ped	*	*	*
24ELL 24EE\	.	(4aa#X 4a#X\	<
(24A#X\	.	.	.
24c#\JJ	.	.	.
24f#\LL	.	.	[
24c#\	.	.	.
24A#\JJ	.	.	.
24E\LL	.	4.fff# 4.ff#\)	.
24A#\	.	.	.
24c#\JJ	.	.	.
24f#\LL	.	.	.
24c#\	.	.	.
24A#\JJ	.	.	.
*Xped	*	*	*
8E\)	.	.	.
8r	.	(8fff# 8ff#\	.
=56	=56	=56	=56
*ped	*	*	*
24ELL 24EE\	.	8aanL 8dd# 8an\	.
(24B\	.	.	.
24d#\JJ	.	.	.
24f#\LL	.	8bbJ 8b\)	>
24d#\	.	.	.
24B\JJ	.	.	.
24A\LL	.	2ccc# 2cc#\	.
24B\	.	.	.
24d#\JJ	.	.	]
24f#\LL	.	.	.
24d#\	.	.	.
24B\JJ	.	.	.
*Xped	*	*	*
8A\)	.	.	.
8r	.	.	.
!!LO:LB:g=original
=57	=57	=57	=57
*ped	*	*	*
24ELL 24EE\	.	(4bb: 4gg#: 4ee: 4b:\	<
(24G#\	.	.	.
24B\JJ	.	.	.
24e\LL	.	.	[
24B\	.	.	.
24G#\JJ	.	.	.
24E\LL	.	4.eee 4.ee\)	.
24G#\	.	.	.
24B\JJ	.	.	.
24e\LL	.	.	.
24B\	.	.	.
24G#\JJ	.	.	.
24E\LL	.	.	.
24G#\	.	.	.
24B\JJ	.	.	.
24e\LL	.	(8eee 8ee\	.
24B\	.	.	.
24G#\JJ	.	.	.
=58	=58	=58	=58
24Dn\LL	.	8gg#L 8g#\	.
24G#\	.	.	.
24B\JJ	.	.	.
24e\LL	.	8aaJ 8a\)	.
24B\	.	.	.
24G#\JJ	.	.	.
24D\LL	.	2bb 2b\	.
24G#\	.	.	.
24B\JJ	.	.	>
24e\LL	.	.	.
24B\	.	.	.
*Xped	*	*	*
24G#\JJ	.	.	.
8D\)	.	.	]
8r	.	.	.
=59	=59	=59	=59
*ped	*	*	*
24C#LL 24CC#\	.	(4aa: 4ee: 4cc#: 4a:\	.
(24E\	.	.	.
24A\JJ	.	.	.
24c#\LL	.	.	.
24A\	.	.	.
24E\JJ)	.	.	.
8C#\	.	8cc#\L	.
8r	.	8ddn\	.
*Xped	*	*	*
4r	.	8ee\)	<
.	.	8aaJ 8a\	.
=60	=60	=60	=60
*ped	*	*	*
24D#XLL 24DD#X\	.	(4ccc# 4cc#\	.
(24F#\	.	.	.
24A\JJ	.	.	.
24c#\LL	.	.	[
24A\	.	.	.
24F#\JJ	.	.	.
24D#\LL	.	8ddd#L 8dd#\	.
*Xped	*	*	*
24F#\	.	.	.
24A\JJ	.	.	.
8c#\)	.	8ccc#J 8cc#\	.
*ped	*	*	*
(24GG#\LL	.	8bb#XL 8b#X\	.
24D#\	.	.	.
24G#\JJ	.	.	.
*Xped	*	*	*
8B#X\)	.	8ddd#J 8dd#\)	.
!!LO:LB:g=original
=61	=61	=61	=61
*ped	*	*	*
24GG#LL 24GGG#\	.	(4aa#X 4a#X\	.
(24D#\	.	.	.
24F##X\JJ	.	.	.
24c#\LL	.	.	.
24F##\	.	.	.
24D#\JJ	.	.	.
24GG#\LL	.	4.ccc# 4.cc#\)	.
24D#\	.	.	.
24F##\JJ	.	.	.
24c#\LL	.	.	.
24F##\	.	.	.
24D#\JJ	.	.	.
*Xped	*	*	*
8GG#/)	.	.	.
8r	.	(8ccc# 8cc#\	.
=62	=62	=62	=62
*ped	*	*	*
24GG#LL 24GGG#/	.	8gg#L 8g#\	.
24D#/	.	.	.
(24G#/JJ	.	.	.
24B#X\LL	.	8aa#XJ 8a#X\	.
24G#\	.	.	.
24D#\JJ	.	.	.
24GG#/LL	.	2bb#X 2b#X\)	<
24D#/	.	.	.
24G#/JJ	.	.	.
24B#\LL	.	.	.
24G#\	.	.	.
24D#\JJ)	.	.	.
*Xped	*	*	*
8GG#/	.	.	.
8r	.	.	.
=63	=63	=63	=63
*ped	*	*	*
24CnLL 24CCn/	.	(8cccnL 8ccn\	.
(24E-X/	.	.	.
24Gn/JJ	.	.	.
24cn\LL	.	8dddnJ 8ddn\	.
24G\	.	.	.
24E-\JJ	.	.	.
24E-\LL	.	[2eee-X [2ee-X\)	.
24G\	.	.	.
24B\JJ	.	.	.
24c\LL	.	.	.
24G\	.	.	.
24E-\JJ	.	.	.
24C\LL	.	.	.
24E-\	.	.	.
24G\JJ	.	.	.
24c\LL	.	.	.
24G\	.	.	.
24E-\JJ	.	.	.
=64	=64	=64	=64
8Cn/)	.	8eee-]L 8ee-\]	>
*Xped	*	*	*
8r	.	(8dddn 8ddn\	.
2r	.	8eee-y 8ee-X\	.
.	.	8ddd 8dd\	.
.	.	8eee- 8ee-\	]
.	.	8dddJ 8dd\)	.
!!LO:LB:g=original
=65	=65	=65	=65
*ped	*	*	*
4BBn 4BBBn/	.	(8ddd#XL 8dd#X\	pp
.	.	8eeen 8een\	.
4d#X 4A 4D#X\	.	8eee#X 8ee#X\	.
.	.	8fff# 8ff#\	.
4r	.	8ggg#X 8gg#X\	.
.	.	8aaaJ 8aa\	.
=66	=66	=66	=66
*	*	*8va	*
2.r	.	8aaa#XL 8aa#X\	.
.	.	8bbb 8bb\	.
.	.	8bbb#X 8bb#X\	.
.	.	8cccc# 8ccc#\	.
.	.	8cccc##X 8ccc##X\	.
*Xped	*	*	*
.	.	8dddd#J 8ddd#\)	.
=67	=67	=67	=67
*ped	*	*	*
!	!	!LO:TX:b:i:t=con delicatezza	!
24ELL 24EE\	.	(4ffff# 4fff#\	.
(24B\	.	.	.
24e\JJ	.	.	.
24g#\LL	.	.	.
24e\	.	.	.
24B\JJ	.	.	.
24G#\LL	.	4.eeee 4.eee\	.
24B\	.	.	.
24e\JJ	.	.	.
24g#\LL	.	.	.
24e\	.	.	.
24B\JJ)	.	.	.
*Xped	*	*	*
8G#\	.	.	.
8r	.	8dddd# 8ddd#\)	.
=68	=68	=68	=68
*ped	*	*	*
24ELL 24EE\	.	4ccccn 4cccn\	.
(24A\	.	.	.
24cn\JJ	.	.	.
24f#\LL	.	.	.
24c\	.	.	.
24A\JJ	.	.	.
8E\)	.	(8eeeL 8ee\	.
*Xped	*	*	*
8r	.	8fff# 8ff#\	.
4r	.	8ggg# 8gg#\	.
.	.	8aaaJ 8aa\)	.
!!LO:LB:g=original
=69	=69	=69	=69
*ped	*	*	*
24ELL 24EE\	.	(4ccccn 4cccn\	.
(24B\	.	.	.
24e\JJ	.	.	.
24g#\LL	.	.	.
24e\	.	.	.
24B\JJ	.	.	.
24G#\LL	.	4.bbb 4.bb\	.
24B\	.	.	.
24e\JJ	.	.	.
24g#\LL	.	.	.
24e\	.	.	.
24B\JJ)	.	.	.
*Xped	*	*	*
8G#\	.	.	.
8r	.	8ggg# 8gg#\)	.
=70	=70	=70	=70
*ped	*	*	*
24ELL 24EE\	.	4ccccn 4cccn\	.
(24A\	.	.	.
24cn\JJ	.	.	.
24f#\LL	.	.	.
24c\	.	.	.
24A\JJ	.	.	.
8E\)	.	(8eeeL 8ee\	.
*Xped	*	*	*
8r	.	8fff# 8ff#\	.
4r	.	8ggg# 8gg#\	.
.	.	8aaaJ 8aa\)	.
=71	=71	=71	=71
*ped	*	*	*
!LO:TX:t=P:problem:mixed beam	!	!	!
24EELL 24EEE/	.	(4bbb: 4ggg#: 4eee: 4bb:\	pp
(24G#\	.	.	.
24B\JJ	.	.	.
24e\LL	.	.	.
24B\	.	.	.
24G#\JJ	.	.	.
24E\LL	.	4ccccn 4cccn\	.
24G#\	.	.	.
24B\JJ	.	.	.
24e\LL	.	.	.
24B\	.	.	.
24G#\JJ	.	.	.
24E\LL	.	4ddddn 4dddn\)	.
24G#\	.	.	.
24B\JJ)	.	.	.
*Xped	*	*	*
8e\	.	.	.
!!LO:PB:g=original
=72	=72	=72	=72
*ped	*	*	*
24GGnLL 24GGGn\	.	2.bbb: 2.gggn: 2.dddn: 2.bb:\	.
(24Gn\	.	.	.
24B\JJ	.	.	.
24dn\LL	.	.	.
24B\	.	.	.
24G\JJ	.	.	.
24Dn\LL	.	.	.
24G\	.	.	.
24B\JJ	.	.	.
24d\LL	.	.	.
24B\	.	.	.
24G\JJ	.	.	.
*Xped	*	*	*
8D\)	.	.	.
8r	.	.	.
=73	=73	=73	=73
*ped	*	*	*
!LO:TX:t=P:problem:mixed beam	!	!	!
24EELL 24EEE/	.	(4bbb: 4ggg#X: 4eee: 4bb:\	.
(24G#X\	.	.	.
24B\JJ	.	.	.
24e\LL	.	.	.
24B\	.	.	.
24G#\JJ	.	.	.
24E\LL	.	4ccccn 4cccn\	.
24G#\	.	.	.
24B\JJ	.	.	.
24e\LL	.	.	.
24B\	.	.	.
24G#\JJ	.	.	.
24E\LL	.	4ddddn 4dddn\)	.
24G#\	.	.	.
24B\JJ	.	.	.
*Xped	*	*	*
8e\)	.	.	.
=74	=74	=74	=74
*ped	*	*	*
24BBLL 24BBB\	.	2.bbb: 2.fff#: 2.dddn: 2.bb:\	.
(24F#\	.	.	.
24B\JJ	.	.	.
24dn\LL	.	.	.
24B\	.	.	.
24F#\JJ	.	.	.
24Dn\LL	.	.	.
24F#\	.	.	.
24B\JJ	.	.	.
24d\LL	.	.	.
24B\	.	.	.
24F#\JJ	.	.	.
*Xped	*	*	*
8D\)	.	.	.
8r	.	.	.
!!LO:LB:g=original
=75	=75	=75	=75
*ped	*	*	*
!LO:TX:b:t=Ped al fine	!	!	!
!LO:TX:t=P:problem:mixed beam	!	!	!
24ELL 24EE/	.	4bbb: 4ggg#X: 4eee: 4bb:\	.
(24G#X\	.	.	.
24B\JJ	.	.	.
24e\LL	.	.	.
!	!	!LO:TX:b:i:t=dolcissimo	!
24B\	.	.	.
24G#\JJ	.	.	.
8E\)	.	4cccc#X 4ccc#X\	.
8r	.	.	.
24r	.	4dddd#X 4ddd#X\	.
(24B\LL	.	.	.
24e\JJ	.	.	.
24g#\LL	.	.	.
24e\	.	.	.
24B\JJ	.	.	.
=76	=76	=76	=76
8G#\)	.	4eeee 4eee\	.
8r	.	.	.
*clefG2	*	*	*
24r	.	4ffff# 4fff#\	.
(24e/LL	.	.	.
24g#/JJ	.	.	.
24b/LL	.	.	.
24g#/	.	.	.
24e/JJ	.	.	.
8B/)	.	4ffff##X 4fff##X\	.
8rg	.	.	.
=77	=77	=77	=77
24r	.	4gggg#: 4eeee: 4bbb: 4ggg#:\	.
(24g#/LL	.	.	.
24b/JJ	.	.	.
24ee/LL	.	.	.
24b/	.	.	.
24g#/JJ)	.	.	.
8e/	.	4r	.
8r	.	.	.
4r	.	4bbb: 4ggg#: 4eee: 4bb:\	.
=78	=78	=78	=78
24r	.	4eeee: 4bbb: 4ggg#: 4eee:\	.
(24g#/LL	.	.	.
24b/JJ	.	.	.
24ee/LL	.	.	.
24b/	.	.	.
24g#/JJ)	.	.	.
8e/	.	4bbb: 4ggg#: 4eee: 4bb:\	.
8r	.	.	.
4r	.	4ggg#: 4eee: 4bb: 4gg#:\	.
*	*	*X8va	*
!!LO:LB:g=original
=79	=79	=79	=79
!	!	!LO:TX:b:i:t=morendo e rallent.	!
4r	.	2eee: 2bb: 2gg#: 2ee:\	.
*clefF4	*	*	*
(24EEE/LL	.	.	.
24EE/	.	.	.
24BB/JJ	.	.	.
24E\LL	.	.	.
24G#\	.	.	.
24B\JJ	.	.	.
24e\LL	.	4eee: 4bb: 4gg#: 4ee:\	.
24g#\	.	.	.
24e\JJ	.	.	.
24B\LL	.	.	.
24E\	.	.	.
24BB\JJ)	.	.	.
=80	=80	=80	=80
8qEE;/	.	.	.
2.g#: 2.B: 2.E;:\	.	2.eee: 2.bb: 2.gg#: 2.ee;:\	.
==	==	==	==
*-	*-	*-	*-
!!!system-decoration: {(s1,s2)}
!!!RDF**kern: > = above
!!!RDF**kern: < = below
!!!ENC: Anastazja Marusiak
!!!END: 2021-05-04
!!!ENC: Marta Lawrence
!!!END: 2021-05-31
